X:1
T:Bridgie Murphy's
R:slide
M:12/8
L:1/8
K:G
|:DEF E2F D3 D3|DEF EDB, A,3 A,3|
|DEF E2F D3 D3|DEF A2F G3 G3:|
|:ABA G2B d3 d3|ABc BAG c3 c3|
|ABA G2B d3 d3|1 ABc B2A G3 G3:|2 ABc B2A G3 E3|]